X:1776
T:The Baldheaded Bachelor
M:C|
L:1/8
B:O'Neill's 1776
R:Hornpipe
Z:"Transcribed by Bob Safranek, rjs@gsp.org"
K:G
   ((3DEF) |        GFGe   fdAG | FGAB   cBcA |     GBcf     gfgb | agfe dcBA |
             (3.G.G.G (Ge) fdAG | FGAB   cBcA | ((3fgf) (df) ecAF | G2 G2 G2 :|
|:  (ga)  |    b2    b2   bagf | e2 ee e2 fg |   a2   aa  (ab)ag | f2 dd d2 ef|
                   gfga    bgdB | cBAB   cdef |     afdf     ecAF | G2 G2 G2 :|


